X: 3
T: The Road To Garrison
R: reel
M: 4/4
L: 1/8
K: Dmaj
|:A3B A2FA | BFAF egfe | dAAA FAAF | GEAG FADF |
A3B A2FA | BFAF egfe | dBBB A2dB |1 AFEG FDE/F/G :|2 AFEG FDDA ||
|: d3f afff | fabf afef | dfff Adfa | bfaf egfe |
defg afff | fgeg fedB | A3B A2dB |1 AFEG FDDA :|2 AFEG FDE/F/G ||


Tune 2698	Setting 15931

